X:117
T: PUTHOENEKEN, PUTHOENEKEN, WAT DEIST IN UNSERN GAR'N?
N: Z0117
O: Europa, Mitteleuropa, Deutschland, Brandenburg
R: Kinder - Lied
M: 2/4
L: 1/16
K: G
g2 | d3ed2g2 | B3cB2
d2 | c2B2c2d2 | B4z2
g2 | d3ed2g2 | B3cB2
d2 | c2B2c2d2 | B4z2
G2 | B2G2B2G2 | c4B2
B2 | A2G2A2B2 | G4z2
g2 | d3ed2g2 | B3cB2
B2 | A2G2A2B2 | G4z2

@@@ Tune index: 9875
